images/content/semiregular-convex-uniform/hexagonal_prism.svg

<?xml version="1.0" encoding="UTF-8"?>
<svg xmlns="http://www.w3.org/2000/svg" xmlns:xlink="http://www.w3.org/1999/xlink" width="235.75pt" height="199.94pt" viewBox="0 0 235.75 199.94" version="1.2">
<g id="surface1">
<path style="fill-rule:nonzero;fill:rgb(81.443787%,56.25%,55.859375%);fill-opacity:1;stroke-width:5;stroke-linecap:round;stroke-linejoin:round;stroke:rgb(0%,0%,0%);stroke-opacity:1;stroke-miterlimit:10;" d="M 499.943664 1664.843982 L 1199.591066 1873.228791 L 1201.116119 1238.259279 " transform="matrix(0.0998941,0,0,-0.0998941,0,199.804131)"/>
<path style="fill-rule:nonzero;fill:rgb(81.443787%,56.25%,55.859375%);fill-opacity:1;stroke-width:5;stroke-linecap:round;stroke-linejoin:round;stroke:rgb(0%,0%,0%);stroke-opacity:1;stroke-miterlimit:10;" d="M 1201.116119 1238.259279 L 554.650053 1011.261002 L 499.943664 1664.843982 " transform="matrix(0.0998941,0,0,-0.0998941,0,199.804131)"/>
<path style="fill-rule:nonzero;fill:rgb(57.03125%,36.206055%,55.859375%);fill-opacity:1;stroke-width:5;stroke-linecap:round;stroke-linejoin:round;stroke:rgb(0%,0%,0%);stroke-opacity:1;stroke-miterlimit:10;" d="M 1862.910923 1032.689952 L 1201.116119 1238.259279 L 1199.591066 1873.228791 " transform="matrix(0.0998941,0,0,-0.0998941,0,199.804131)"/>
<path style=" stroke:none;fill-rule:nonzero;fill:rgb(66.40625%,73.826599%,90.429688%);fill-opacity:1;" d="M 119.984375 76.109375 L 55.40625 98.785156 L 195.75 147.058594 "/>
<path style="fill:none;stroke-width:5;stroke-linecap:round;stroke-linejoin:round;stroke:rgb(0%,0%,0%);stroke-opacity:1;stroke-miterlimit:10;" d="M 1201.116119 1238.259279 L 554.650053 1011.261002 " transform="matrix(0.0998941,0,0,-0.0998941,0,199.804131)"/>
<path style="fill-rule:nonzero;fill:rgb(66.40625%,73.826599%,90.429688%);fill-opacity:1;stroke-width:5;stroke-linecap:round;stroke-linejoin:round;stroke:rgb(0%,0%,0%);stroke-opacity:1;stroke-miterlimit:10;" d="M 1959.575822 528.014714 L 1862.910923 1032.689952 L 1201.116119 1238.259279 " transform="matrix(0.0998941,0,0,-0.0998941,0,199.804131)"/>
<path style="fill-rule:nonzero;fill:rgb(57.03125%,36.206055%,55.859375%);fill-opacity:1;stroke-width:5;stroke-linecap:round;stroke-linejoin:round;stroke:rgb(0%,0%,0%);stroke-opacity:1;stroke-miterlimit:10;" d="M 1199.591066 1873.228791 L 1915.427492 1684.552359 L 1862.910923 1032.689952 " transform="matrix(0.0998941,0,0,-0.0998941,0,199.804131)"/>
<path style="fill-rule:nonzero;fill:rgb(13.696289%,13.696289%,43.701172%);fill-opacity:1;stroke-width:5;stroke-linecap:round;stroke-linejoin:round;stroke:rgb(0%,0%,0%);stroke-opacity:1;stroke-miterlimit:10;" d="M 1959.575822 528.014714 L 1862.910923 1032.689952 L 1915.427492 1684.552359 " transform="matrix(0.0998941,0,0,-0.0998941,0,199.804131)"/>
<path style="fill-rule:nonzero;fill:rgb(89.646912%,74.021912%,23.706055%);fill-opacity:1;stroke-width:5;stroke-linecap:round;stroke-linejoin:round;stroke:rgb(0%,0%,0%);stroke-opacity:1;stroke-miterlimit:10;" d="M 434.053552 1190.278765 L 499.943664 1664.843982 L 554.650053 1011.261002 " transform="matrix(0.0998941,0,0,-0.0998941,0,199.804131)"/>
<path style="fill-rule:nonzero;fill:rgb(89.646912%,74.021912%,23.706055%);fill-opacity:1;stroke-width:5;stroke-linecap:round;stroke-linejoin:round;stroke:rgb(0%,0%,0%);stroke-opacity:1;stroke-miterlimit:10;" d="M 554.650053 1011.261002 L 500.686638 501.384942 L 434.053552 1190.278765 " transform="matrix(0.0998941,0,0,-0.0998941,0,199.804131)"/>
<path style=" stroke:none;fill-rule:nonzero;fill:rgb(66.40625%,73.826599%,90.429688%);fill-opacity:1;" d="M 55.40625 98.785156 L 50.015625 149.71875 L 195.75 147.058594 "/>
<path style="fill:none;stroke-width:5;stroke-linecap:round;stroke-linejoin:round;stroke:rgb(0%,0%,0%);stroke-opacity:1;stroke-miterlimit:10;" d="M 554.650053 1011.261002 L 500.686638 501.384942 " transform="matrix(0.0998941,0,0,-0.0998941,0,199.804131)"/>
<path style="fill-rule:nonzero;fill:rgb(13.696289%,13.696289%,43.701172%);fill-opacity:1;stroke-width:5;stroke-linecap:round;stroke-linejoin:round;stroke:rgb(0%,0%,0%);stroke-opacity:1;stroke-miterlimit:10;" d="M 1915.427492 1684.552359 L 2027.499337 1215.305276 L 1959.575822 528.014714 " transform="matrix(0.0998941,0,0,-0.0998941,0,199.804131)"/>
<path style=" stroke:none;fill-rule:nonzero;fill:rgb(64.256287%,76.5625%,93.75%);fill-opacity:1;" d="M 119.832031 12.679688 L 49.941406 33.496094 L 202.535156 78.402344 "/>
<path style="fill:none;stroke-width:5;stroke-linecap:round;stroke-linejoin:round;stroke:rgb(0%,0%,0%);stroke-opacity:1;stroke-miterlimit:10;" d="M 1199.591066 1873.228791 L 499.943664 1664.843982 " transform="matrix(0.0998941,0,0,-0.0998941,0,199.804131)"/>
<path style="fill-rule:nonzero;fill:rgb(64.256287%,76.5625%,93.75%);fill-opacity:1;stroke-width:5;stroke-linecap:round;stroke-linejoin:round;stroke:rgb(0%,0%,0%);stroke-opacity:1;stroke-miterlimit:10;" d="M 2027.499337 1215.305276 L 1915.427492 1684.552359 L 1199.591066 1873.228791 " transform="matrix(0.0998941,0,0,-0.0998941,0,199.804131)"/>
<path style=" stroke:none;fill-rule:nonzero;fill:rgb(64.256287%,76.5625%,93.75%);fill-opacity:1;" d="M 49.941406 33.496094 L 43.359375 80.902344 L 202.535156 78.402344 "/>
<path style="fill:none;stroke-width:5;stroke-linecap:round;stroke-linejoin:round;stroke:rgb(0%,0%,0%);stroke-opacity:1;stroke-miterlimit:10;" d="M 499.943664 1664.843982 L 434.053552 1190.278765 " transform="matrix(0.0998941,0,0,-0.0998941,0,199.804131)"/>
<path style="fill-rule:nonzero;fill:rgb(66.40625%,73.826599%,90.429688%);fill-opacity:1;stroke-width:5;stroke-linecap:round;stroke-linejoin:round;stroke:rgb(0%,0%,0%);stroke-opacity:1;stroke-miterlimit:10;" d="M 500.686638 501.384942 L 1244.912513 214.63587 L 1959.575822 528.014714 " transform="matrix(0.0998941,0,0,-0.0998941,0,199.804131)"/>
<path style="fill-rule:nonzero;fill:rgb(84.179688%,54.492188%,48.706055%);fill-opacity:1;stroke-width:5;stroke-linecap:round;stroke-linejoin:round;stroke:rgb(0%,0%,0%);stroke-opacity:1;stroke-miterlimit:10;" d="M 1244.912513 214.63587 L 1959.575822 528.014714 L 2027.499337 1215.305276 " transform="matrix(0.0998941,0,0,-0.0998941,0,199.804131)"/>
<path style="fill-rule:nonzero;fill:rgb(50.78125%,27.098083%,49.19281%);fill-opacity:1;stroke-width:5;stroke-linecap:round;stroke-linejoin:round;stroke:rgb(0%,0%,0%);stroke-opacity:1;stroke-miterlimit:10;" d="M 1247.336957 919.366782 L 434.053552 1190.278765 L 500.686638 501.384942 " transform="matrix(0.0998941,0,0,-0.0998941,0,199.804131)"/>
<path style="fill-rule:nonzero;fill:rgb(50.78125%,27.098083%,49.19281%);fill-opacity:1;stroke-width:5;stroke-linecap:round;stroke-linejoin:round;stroke:rgb(0%,0%,0%);stroke-opacity:1;stroke-miterlimit:10;" d="M 500.686638 501.384942 L 1244.912513 214.63587 L 1247.336957 919.366782 " transform="matrix(0.0998941,0,0,-0.0998941,0,199.804131)"/>
<path style="fill-rule:nonzero;fill:rgb(84.179688%,54.492188%,48.706055%);fill-opacity:1;stroke-width:5;stroke-linecap:round;stroke-linejoin:round;stroke:rgb(0%,0%,0%);stroke-opacity:1;stroke-miterlimit:10;" d="M 2027.499337 1215.305276 L 1247.336957 919.366782 L 1244.912513 214.63587 " transform="matrix(0.0998941,0,0,-0.0998941,0,199.804131)"/>
<path style="fill-rule:nonzero;fill:rgb(64.256287%,76.5625%,93.75%);fill-opacity:1;stroke-width:5;stroke-linecap:round;stroke-linejoin:round;stroke:rgb(0%,0%,0%);stroke-opacity:1;stroke-miterlimit:10;" d="M 434.053552 1190.278765 L 1247.336957 919.366782 L 2027.499337 1215.305276 " transform="matrix(0.0998941,0,0,-0.0998941,0,199.804131)"/>
</g>
</svg>

<svg xmlns="http://www.w3.org/2000/svg" width="314.333" height="266.587" viewBox="0 0 235.75 199.94" version="1.2"><path style="fill-rule:nonzero;fill:#d08f8e;fill-opacity:1;stroke-width:5;stroke-linecap:round;stroke-linejoin:round;stroke:#000;stroke-opacity:1;stroke-miterlimit:10" d="m499.944 1664.844 699.647 208.385 1.525-634.97" transform="matrix(.0999 0 0 -.0999 0 199.804)"/><path style="fill-rule:nonzero;fill:#d08f8e;fill-opacity:1;stroke-width:5;stroke-linecap:round;stroke-linejoin:round;stroke:#000;stroke-opacity:1;stroke-miterlimit:10" d="M1201.116 1238.26 554.65 1011.26l-54.706 653.583" transform="matrix(.0999 0 0 -.0999 0 199.804)"/><path style="fill-rule:nonzero;fill:#915c8e;fill-opacity:1;stroke-width:5;stroke-linecap:round;stroke-linejoin:round;stroke:#000;stroke-opacity:1;stroke-miterlimit:10" d="m1862.91 1032.69-661.794 205.57-1.525 634.969" transform="matrix(.0999 0 0 -.0999 0 199.804)"/><path style="stroke:none;fill-rule:nonzero;fill:#a9bce7;fill-opacity:1" d="M119.984 76.11 55.406 98.784 195.75 147.06"/><path style="fill:none;stroke-width:5;stroke-linecap:round;stroke-linejoin:round;stroke:#000;stroke-opacity:1;stroke-miterlimit:10" d="M1201.116 1238.26 554.65 1011.26" transform="matrix(.0999 0 0 -.0999 0 199.804)"/><path style="fill-rule:nonzero;fill:#a9bce7;fill-opacity:1;stroke-width:5;stroke-linecap:round;stroke-linejoin:round;stroke:#000;stroke-opacity:1;stroke-miterlimit:10" d="m1959.576 528.015-96.665 504.675-661.795 205.57" transform="matrix(.0999 0 0 -.0999 0 199.804)"/><path style="fill-rule:nonzero;fill:#915c8e;fill-opacity:1;stroke-width:5;stroke-linecap:round;stroke-linejoin:round;stroke:#000;stroke-opacity:1;stroke-miterlimit:10" d="m1199.591 1873.229 715.836-188.677-52.516-651.862" transform="matrix(.0999 0 0 -.0999 0 199.804)"/><path style="fill-rule:nonzero;fill:#23236f;fill-opacity:1;stroke-width:5;stroke-linecap:round;stroke-linejoin:round;stroke:#000;stroke-opacity:1;stroke-miterlimit:10" d="m1959.576 528.015-96.665 504.675 52.516 651.862" transform="matrix(.0999 0 0 -.0999 0 199.804)"/><path style="fill-rule:nonzero;fill:#e5bd3c;fill-opacity:1;stroke-width:5;stroke-linecap:round;stroke-linejoin:round;stroke:#000;stroke-opacity:1;stroke-miterlimit:10" d="m434.054 1190.279 65.89 474.565 54.706-653.583M554.65 1011.261l-53.963-509.876-66.633 688.894" transform="matrix(.0999 0 0 -.0999 0 199.804)"/><path style="stroke:none;fill-rule:nonzero;fill:#a9bce7;fill-opacity:1" d="m55.406 98.785-5.39 50.934 145.734-2.66"/><path style="fill:none;stroke-width:5;stroke-linecap:round;stroke-linejoin:round;stroke:#000;stroke-opacity:1;stroke-miterlimit:10" d="m554.65 1011.261-53.963-509.876" transform="matrix(.0999 0 0 -.0999 0 199.804)"/><path style="fill-rule:nonzero;fill:#23236f;fill-opacity:1;stroke-width:5;stroke-linecap:round;stroke-linejoin:round;stroke:#000;stroke-opacity:1;stroke-miterlimit:10" d="m1915.427 1684.552 112.072-469.247-67.923-687.29" transform="matrix(.0999 0 0 -.0999 0 199.804)"/><path style="stroke:none;fill-rule:nonzero;fill:#a4c3ef;fill-opacity:1" d="m119.832 12.68-69.89 20.816 152.593 44.906"/><path style="fill:none;stroke-width:5;stroke-linecap:round;stroke-linejoin:round;stroke:#000;stroke-opacity:1;stroke-miterlimit:10" d="m1199.591 1873.229-699.647-208.385" transform="matrix(.0999 0 0 -.0999 0 199.804)"/><path style="fill-rule:nonzero;fill:#a4c3ef;fill-opacity:1;stroke-width:5;stroke-linecap:round;stroke-linejoin:round;stroke:#000;stroke-opacity:1;stroke-miterlimit:10" d="m2027.5 1215.305-112.073 469.247-715.836 188.677" transform="matrix(.0999 0 0 -.0999 0 199.804)"/><path style="stroke:none;fill-rule:nonzero;fill:#a4c3ef;fill-opacity:1" d="M49.941 33.496 43.36 80.902l159.176-2.5"/><path style="fill:none;stroke-width:5;stroke-linecap:round;stroke-linejoin:round;stroke:#000;stroke-opacity:1;stroke-miterlimit:10" d="m499.944 1664.844-65.89-474.565" transform="matrix(.0999 0 0 -.0999 0 199.804)"/><path style="fill-rule:nonzero;fill:#a9bce7;fill-opacity:1;stroke-width:5;stroke-linecap:round;stroke-linejoin:round;stroke:#000;stroke-opacity:1;stroke-miterlimit:10" d="m500.687 501.385 744.226-286.75 714.663 313.38" transform="matrix(.0999 0 0 -.0999 0 199.804)"/><path style="fill-rule:nonzero;fill:#d78b7c;fill-opacity:1;stroke-width:5;stroke-linecap:round;stroke-linejoin:round;stroke:#000;stroke-opacity:1;stroke-miterlimit:10" d="m1244.913 214.636 714.663 313.379 67.923 687.29" transform="matrix(.0999 0 0 -.0999 0 199.804)"/><path style="fill-rule:nonzero;fill:#81457d;fill-opacity:1;stroke-width:5;stroke-linecap:round;stroke-linejoin:round;stroke:#000;stroke-opacity:1;stroke-miterlimit:10" d="m1247.337 919.367-813.283 270.912 66.633-688.894" transform="matrix(.0999 0 0 -.0999 0 199.804)"/><path style="fill-rule:nonzero;fill:#81457d;fill-opacity:1;stroke-width:5;stroke-linecap:round;stroke-linejoin:round;stroke:#000;stroke-opacity:1;stroke-miterlimit:10" d="m500.687 501.385 744.226-286.75 2.424 704.732" transform="matrix(.0999 0 0 -.0999 0 199.804)"/><path style="fill-rule:nonzero;fill:#d78b7c;fill-opacity:1;stroke-width:5;stroke-linecap:round;stroke-linejoin:round;stroke:#000;stroke-opacity:1;stroke-miterlimit:10" d="m2027.5 1215.305-780.163-295.938-2.424-704.731" transform="matrix(.0999 0 0 -.0999 0 199.804)"/><path style="fill-rule:nonzero;fill:#a4c3ef;fill-opacity:1;stroke-width:5;stroke-linecap:round;stroke-linejoin:round;stroke:#000;stroke-opacity:1;stroke-miterlimit:10" d="m434.054 1190.279 813.283-270.912 780.162 295.938" transform="matrix(.0999 0 0 -.0999 0 199.804)"/></svg>
